X: 4276
T: Bob's Garden Of Earthly Delights
R: reel
M: 4/4
K: Cmajor
AB|:cA ~A2 cAed|(3cBA BG DGBG|cA ~A2 EAcd|ede^f gedB|
cA ~A2 gedB|GB ~B2 dBGB|cABG AGED|EAAG A2 AB:|
|:ea ~a2 gaba|ge ~e2 dBGB|cA ~A2 cAe^f|g^fgb agba|
ge ~e2 bage|dg ~g2 edcB|cABG AGED|1 EAAG ~A2 AB:|2 EAAG ~A4||

